X:1
T:Fósiles
T:La danse macabre
T:Camille Saint-Saëns
T:Transcripción: Dario R. Hernández
C:Camille Saint-Saes
L:1/8
Q:1/4=90
M:3/4
K:Bb
V:1 treble nm="Piano" snm="Pno."
V:1
"^Introducción" [Ae]6 | [DA]6 | [Ae]4 [Ae]2 | [DA]4 [DA]2 | [Ae][Ae] [Ae]2 [DA]2 | %5
 [Ae][Ae] [Ae]2 [DA]2 | [Ae]2 [DA]2 [Ae]2 | [DA]2 [Ae]2 [DA]2 ||"^A\n" [Bg]2 GB GA | B2 GB GB | %10
 (3A/B/A/G GB GA | B2 AB GB | _A2 Ac Ac | c2 Bc _Ac | (3B/c/B/_A Ac AB | c2 _Ac BA | G2 gb ga | %17
 b2 gb gb | (3a/b/a/g gb ga | b2 ab gb | _a2 ac' ac' | c'2 bc' _ac' | (3b/c'/b/_a ac' ab | %23
 c'2 _ac' ba | g2 z2 D2 ||"^B" G4 G2 | F4 F2 | =E4 E2 | _E4 E2 | D2 =E2 G2 | ^F2 =E2 D2 | =E4 E2 | %32
 ^F4 D2 | G4 G2 | F4 F2 | =E4 E2 | _E4 E2 | D2 G2 B2 | A2 ^F2 D2 | ^F4 =E2 |:"^C" D2 c^f d=e | %41
 ^f2 =ef de | =ed d^f de | ^f2 =ef df | [eg]2 GB GA | B2 EG EF | G2 B,E B,D | E2 EE EE :| %48
"^Repetición y variantes\n" D2 [DA][DA] [DA][DA] | [Ae]2 [DA][DA] [DA][DA] | [Ae]2 [DA]2 [Ae]2 | %51
 [DA]2 [Ae]2 [DA]2 || G2"^A" GB GA | B2 GB GB | (3A/B/A/G GB GA | B2 AB GB | _A2 Ac Ac | %57
 c2 Bc _Ac | (3B/c/B/_A Ac AB | c2 _Ac BA | G2 gb ga | b2 gb gb | (3a/b/a/g gb ga | b2 ab gb | %64
 _a2 ac' ac' | c'2 bc' _ac' | (3b/c'/b/_a ac' ab | c'2 _ac' ba | g2 z2 D2 ||"^B" G4 G2 | F4 F2 | %71
 =E4 E2 | _E4 E2 | D2 =E2 G2 | ^F2 =E2 D2 | =E4 E2 | ^F4 D2 | G4 G2 | F4 F2 | =E4 E2 | _E4 E2 | %81
 D2 G2 B2 | A2 ^F2 D2 | ^F4 =E2 |:"^C" D2 c^f d=e | ^f2 =ef de | (3=e/^f/e/d df de | ^f2 =ef df | %88
 g2 GB GA | B2 EG EF | G2 B,E B,D |1 E2 EE EE :|2 D2 DD DD ||"^Final" D2 [DA][DA] [DA][DA] | %94
 [Ae]2 [DA][DA] [DA][DA] | [Ae]2 [DA]2 [Ae]2 | [DA]2 [Ae]2 [DA]2 | [Bg]2 z4 |] %98

